lib/functional/math&finance/number-square-three.svg

<svg xmlns="http://www.w3.org/2000/svg" fill="none" stroke="currentColor" aria-hidden="true" viewBox="0 0 32 32"><g id="Icon-NumberSquareThree"><g clip-path="url(#clip0_12_4766)"><g id="size=md (32px)"><g id="NumberSquareThree"><path id="Vector" stroke-linecap="round" stroke-linejoin="round" stroke-width="2" d="M13 10.5H19L15.5 15.5C16.0756 15.5 16.6422 15.642 17.1498 15.9134C17.6574 16.1847 18.0902 16.577 18.41 17.0556C18.7297 17.5342 18.9265 18.0842 18.9829 18.657C19.0393 19.2298 18.9536 19.8077 18.7333 20.3394C18.513 20.8712 18.165 21.3404 17.7201 21.7055C17.2752 22.0707 16.7471 22.3204 16.1826 22.4327C15.6181 22.545 15.0347 22.5164 14.4839 22.3493C13.9331 22.1823 13.432 21.882 13.025 21.475"/><path id="Vector_2" stroke-linecap="round" stroke-linejoin="round" stroke-width="2" d="M26 5H6C5.44772 5 5 5.44772 5 6V26C5 26.5523 5.44772 27 6 27H26C26.5523 27 27 26.5523 27 26V6C27 5.44772 26.5523 5 26 5Z"/></g></g></g></g><defs><clipPath id="clip0_12_4766"><rect width="32" height="32" fill="white" rx="5"/></clipPath></defs></svg>

<svg xmlns="http://www.w3.org/2000/svg" fill="none" stroke="currentColor" aria-hidden="true" viewBox="0 0 32 32"><g stroke="#101828" stroke-linecap="round" stroke-linejoin="round" stroke-width="2" clip-path="url(#a)"><path d="M13 10.5h6l-3.5 5a3.499 3.499 0 1 1-2.475 5.975"/><path d="M26 5H6a1 1 0 0 0-1 1v20a1 1 0 0 0 1 1h20a1 1 0 0 0 1-1V6a1 1 0 0 0-1-1Z"/></g><defs><clipPath id="a"><rect width="32" height="32" fill="#fff" rx="5"/></clipPath></defs></svg>
